src/img/svg/bell-7.svg

<svg viewBox="0 0 49 50" fill="none" xmlns="http://www.w3.org/2000/svg">
<path d="M22 49C24.6125 49 26.75 46.8769 26.75 44.2821H17.25C17.25 46.8769 19.3638 49 22 49ZM36.25 34.8462V23.0513C36.25 15.8092 32.355 9.74667 25.5625 8.14256V6.53846C25.5625 4.58051 23.9713 3 22 3C20.0287 3 18.4375 4.58051 18.4375 6.53846V8.14256C11.6213 9.74667 7.75 15.7856 7.75 23.0513V34.8462L3 39.5641V41.9231H41V39.5641L36.25 34.8462Z" fill="#333333"/>
<path d="M47.4063 11.5845C47.4063 17.5156 42.6124 22.3207 36.7025 22.3207C30.7926 22.3207 25.9987 17.5156 25.9987 11.5845C25.9987 5.65336 30.7926 0.848289 36.7025 0.848289C42.6124 0.848289 47.4063 5.65336 47.4063 11.5845Z" fill="#00ADEE" stroke="#00ADEE" stroke-width="1.25517"/>
<path d="M40.464 6.92213V7.94635L36.2015 17.4656H34.6049L38.7771 8.23253H33.9572V10.1153H32.5113V6.92213H40.464Z" fill="white"/>
</svg>

<svg viewBox="0 0 49 50" fill="none" xmlns="http://www.w3.org/2000/svg"><path d="M22 49c2.613 0 4.75-2.123 4.75-4.718h-9.5C17.25 46.877 19.364 49 22 49zm14.25-14.154V23.051c0-7.242-3.895-13.304-10.688-14.908V6.538C25.563 4.581 23.973 3 22 3c-1.971 0-3.563 1.58-3.563 3.538v1.605C11.622 9.747 7.75 15.786 7.75 23.05v11.795L3 39.564v2.36h38v-2.36l-4.75-4.718z" fill="#333"/><path d="M47.406 11.585c0 5.93-4.794 10.736-10.703 10.736-5.91 0-10.704-4.805-10.704-10.737 0-5.93 4.794-10.736 10.704-10.736 5.91 0 10.703 4.805 10.703 10.736z" fill="#00ADEE" stroke="#00ADEE" stroke-width="1.255"/><path d="M40.464 6.922v1.024l-4.262 9.52h-1.597l4.172-9.233h-4.82v1.882h-1.446V6.922h7.953z" fill="#fff"/></svg>
